dist/img/calendar.svg

<svg width="16" height="16" fill="none" xmlns="http://www.w3.org/2000/svg"><path d="M13.5 15.5h-11C1.1 15.5 0 14.4 0 13V4c0-1.4 1.1-2.5 2.5-2.5h11C14.9 1.5 16 2.6 16 4v9c0 1.4-1.1 2.5-2.5 2.5zm-11-13C1.7 2.5 1 3.2 1 4v9c0 .8.7 1.5 1.5 1.5h11c.8 0 1.5-.7 1.5-1.5V4c0-.8-.7-1.5-1.5-1.5h-11z" fill="#316193"/><path d="M5 3.5c-.3 0-.5-.2-.5-.5V1c0-.3.2-.5.5-.5s.5.2.5.5v2c0 .3-.2.5-.5.5zm6 0c-.3 0-.5-.2-.5-.5V1c0-.3.2-.5.5-.5s.5.2.5.5v2c0 .3-.2.5-.5.5zm4 3H1C.7 6.5.5 6.3.5 6s.2-.5.5-.5h14c.3 0 .5.2.5.5s-.2.5-.5.5zM3.5 13c-.3 0-.5-.1-.7-.3-.2-.2-.3-.5-.3-.7 0-.3.1-.5.3-.7.4-.4 1-.4 1.4 0 .2.2.3.5.3.7 0 .2-.1.5-.3.7-.2.2-.4.3-.7.3zm0-3c-.3 0-.5-.1-.7-.3-.2-.2-.3-.4-.3-.7 0-.3.1-.5.3-.7.4-.4 1-.4 1.4 0 .2.2.3.5.3.7 0 .2-.1.5-.3.7-.2.2-.4.3-.7.3zm3 3c-.3 0-.5-.1-.7-.3-.2-.2-.3-.5-.3-.7 0-.2.1-.5.3-.7.4-.4 1-.4 1.4 0 .2.2.3.5.3.7 0 .2-.1.5-.3.7-.2.2-.4.3-.7.3zm0-3c-.3 0-.5-.1-.7-.3-.2-.2-.3-.5-.3-.7 0-.2.1-.5.3-.7.4-.4 1-.4 1.4 0 .2.2.3.5.3.7 0 .2-.1.5-.3.7-.2.2-.4.3-.7.3zm3 3c-.3 0-.5-.1-.7-.3-.2-.2-.3-.5-.3-.7 0-.2.1-.5.3-.7.4-.4 1-.4 1.4 0 .2.2.3.4.3.7 0 .3-.1.5-.3.7-.2.2-.4.3-.7.3zm0-3c-.3 0-.5-.1-.7-.3-.2-.2-.3-.5-.3-.7 0-.2.1-.5.3-.7.4-.4 1-.4 1.4 0 .2.2.3.5.3.7 0 .3-.1.5-.3.7-.2.2-.4.3-.7.3zm3 3c-.3 0-.5-.1-.7-.3-.2-.2-.3-.5-.3-.7 0-.3.1-.5.3-.7.4-.4 1-.4 1.4 0 .2.2.3.5.3.7 0 .2-.1.5-.3.7-.2.2-.4.3-.7.3zm0-3c-.3 0-.5-.1-.7-.3-.2-.2-.3-.5-.3-.7 0-.2.1-.5.3-.7.4-.4 1-.4 1.4 0 .2.2.3.5.3.7 0 .3-.1.5-.3.7-.2.2-.4.3-.7.3z" fill="#316193"/></svg>

<svg width="16" height="16" viewBox="0 0 16 16" fill="none" xmlns="http://www.w3.org/2000/svg">
<path d="M13.5 15.5H2.5C1.1 15.5 0 14.4 0 13V4C0 2.6 1.1 1.5 2.5 1.5H13.5C14.9 1.5 16 2.6 16 4V13C16 14.4 14.9 15.5 13.5 15.5ZM2.5 2.5C1.7 2.5 1 3.2 1 4V13C1 13.8 1.7 14.5 2.5 14.5H13.5C14.3 14.5 15 13.8 15 13V4C15 3.2 14.3 2.5 13.5 2.5H2.5Z" fill="#316193"/>
<path d="M5 3.5C4.7 3.5 4.5 3.3 4.5 3V1C4.5 0.7 4.7 0.5 5 0.5C5.3 0.5 5.5 0.7 5.5 1V3C5.5 3.3 5.3 3.5 5 3.5Z" fill="#316193"/>
<path d="M11 3.5C10.7 3.5 10.5 3.3 10.5 3V1C10.5 0.7 10.7 0.5 11 0.5C11.3 0.5 11.5 0.7 11.5 1V3C11.5 3.3 11.3 3.5 11 3.5Z" fill="#316193"/>
<path d="M15 6.5H1C0.7 6.5 0.5 6.3 0.5 6C0.5 5.7 0.7 5.5 1 5.5H15C15.3 5.5 15.5 5.7 15.5 6C15.5 6.3 15.3 6.5 15 6.5Z" fill="#316193"/>
<path d="M3.5 13C3.2 13 3 12.9 2.8 12.7C2.6 12.5 2.5 12.2 2.5 12C2.5 11.7 2.6 11.5 2.8 11.3C3.2 10.9 3.8 10.9 4.2 11.3C4.4 11.5 4.5 11.8 4.5 12C4.5 12.2 4.4 12.5 4.2 12.7C4 12.9 3.8 13 3.5 13Z" fill="#316193"/>
<path d="M3.5 10C3.2 10 3 9.9 2.8 9.7C2.6 9.5 2.5 9.3 2.5 9C2.5 8.7 2.6 8.5 2.8 8.3C3.2 7.9 3.8 7.9 4.2 8.3C4.4 8.5 4.5 8.8 4.5 9C4.5 9.2 4.4 9.5 4.2 9.7C4 9.9 3.8 10 3.5 10Z" fill="#316193"/>
<path d="M6.5 13C6.2 13 6 12.9 5.8 12.7C5.6 12.5 5.5 12.2 5.5 12C5.5 11.8 5.6 11.5 5.8 11.3C6.2 10.9 6.8 10.9 7.2 11.3C7.4 11.5 7.5 11.8 7.5 12C7.5 12.2 7.4 12.5 7.2 12.7C7 12.9 6.8 13 6.5 13Z" fill="#316193"/>
<path d="M6.5 10C6.2 10 6 9.9 5.8 9.7C5.6 9.5 5.5 9.2 5.5 9C5.5 8.8 5.6 8.5 5.8 8.3C6.2 7.9 6.8 7.9 7.2 8.3C7.4 8.5 7.5 8.8 7.5 9C7.5 9.2 7.4 9.5 7.2 9.7C7 9.9 6.8 10 6.5 10Z" fill="#316193"/>
<path d="M9.5 13C9.2 13 9 12.9 8.8 12.7C8.6 12.5 8.5 12.2 8.5 12C8.5 11.8 8.6 11.5 8.8 11.3C9.2 10.9 9.8 10.9 10.2 11.3C10.4 11.5 10.5 11.7 10.5 12C10.5 12.3 10.4 12.5 10.2 12.7C10 12.9 9.8 13 9.5 13Z" fill="#316193"/>
<path d="M9.5 10C9.2 10 9 9.9 8.8 9.7C8.6 9.5 8.5 9.2 8.5 9C8.5 8.8 8.6 8.5 8.8 8.3C9.2 7.9 9.8 7.9 10.2 8.3C10.4 8.5 10.5 8.8 10.5 9C10.5 9.3 10.4 9.5 10.2 9.7C10 9.9 9.8 10 9.5 10Z" fill="#316193"/>
<path d="M12.5 13C12.2 13 12 12.9 11.8 12.7C11.6 12.5 11.5 12.2 11.5 12C11.5 11.7 11.6 11.5 11.8 11.3C12.2 10.9 12.8 10.9 13.2 11.3C13.4 11.5 13.5 11.8 13.5 12C13.5 12.2 13.4 12.5 13.2 12.7C13 12.9 12.8 13 12.5 13Z" fill="#316193"/>
<path d="M12.5 10C12.2 10 12 9.9 11.8 9.7C11.6 9.5 11.5 9.2 11.5 9C11.5 8.8 11.6 8.5 11.8 8.3C12.2 7.9 12.8 7.9 13.2 8.3C13.4 8.5 13.5 8.8 13.5 9C13.5 9.3 13.4 9.5 13.2 9.7C13 9.9 12.8 10 12.5 10Z" fill="#316193"/>
</svg>
